icon-themes/breeze_svg/cmd/32/diagramaxisz.svg

<svg viewBox="0 0 32 32" xmlns="http://www.w3.org/2000/svg"><path d="m10.646484 17.646484-.646484.646485-2.3535156 2.353515-1 1-2.6464844 2.646485s.7068614.705811.7070312.707031l2.6464844-2.646484 1-1 1.6464844-1.646485 1-1 .353516-.353515z" fill="#1d99f3"/><path d="m13 4v14.292969l-9 9s.706863.705817.7070312.707031l8.9999998-9h.292969 14v-1h-14v-14z" fill="#4d4d4d"/></svg>

<svg xmlns="http://www.w3.org/2000/svg" viewBox="0 0 32 32">
 <path 
     style="fill:#1d99f3" 
     d="M 10.646484 17.646484 L 10 18.292969 L 7.6464844 20.646484 L 6.6464844 21.646484 L 4 24.292969 C 4 24.292969 4.7068614 24.99878 4.7070312 25 L 7.3535156 22.353516 L 8.3535156 21.353516 L 10 19.707031 L 11 18.707031 L 11.353516 18.353516 L 10.646484 17.646484 z "
     />
 <path 
     style="fill:#4d4d4d" 
     d="M 13 4 L 13 18.292969 L 4 27.292969 C 4 27.292969 4.706863 27.998786 4.7070312 28 L 13.707031 19 L 14 19 L 28 19 L 28 18 L 14 18 L 14 4 L 13 4 z "
     />
</svg>
